assets/Necktie/Flat/necktie_flat.svg

<svg width="32" height="32" viewBox="0 0 32 32" fill="none" xmlns="http://www.w3.org/2000/svg">
<path d="M2 8C2 5.79086 3.79086 4 6 4H26C28.2091 4 30 5.79086 30 8V25.9996C30 28.2088 28.2091 29.9996 26 29.9996H21L16 27.5L11 29.9996H6C3.79086 29.9996 2 28.2088 2 25.9996V8Z" fill="#5092FF"/>
<path d="M5 4.1211V29.8789C5.49219 30 6 30 6 30V4C5.67578 3.99996 5.375 3.99999 5 4.1211ZM9 4V30H10.0001V4H9ZM13 4V30H15.0001V4H13ZM17.0089 30V4H19.009V30H17.0089ZM26 30V4C26.4844 4 26.707 4.04297 27 4.10938V29.8906C26.6289 29.9688 26.3438 30 26 30ZM22 4V30H23V4H22Z" fill="#26EAFC"/>
<path d="M11.5912 8.66003H16.0012H20.4112L18.0112 12.38C17.8293 12.6669 17.5544 12.8754 17.2379 12.9748L21.0051 29.9999H10.9973L14.7671 12.9742C14.4518 12.8746 14.1727 12.6663 13.9912 12.38L11.5912 8.66003Z" fill="#433B6B"/>
<path d="M23.6798 2L18.0502 8.92578H13.9807L8.28613 2H23.6798Z" fill="#D3D3D3"/>
<path d="M7.07823 3.56244C6.77062 2.83648 7.30088 2 8.31648 2C9.30651 2 10.1152 2.80629 10.3388 3.05112C10.5306 3.26119 14.2769 6.99747 15.4783 8.19568C15.6772 8.39402 15.8063 8.52282 15.8381 8.55457C15.9392 8.65568 15.9901 8.76874 16.0001 8.88183C16.0102 8.76874 16.061 8.65568 16.1621 8.55457C16.1843 8.53239 16.2539 8.46288 16.3615 8.3554C17.3388 7.37931 21.4512 3.27167 21.6526 3.05112C21.8761 2.80629 22.6848 2 23.6749 2C24.6905 2 25.2207 2.83648 24.9131 3.56244C24.3534 4.88322 23.0617 7.554 22.2149 9.30481C21.9879 9.77409 21.7929 10.1773 21.6526 10.4707C20.8483 12.1515 19.332 11.2477 18.9381 11.0029C18.7747 10.9013 18.3423 10.6472 17.8714 10.3705C17.2072 9.98016 16.4666 9.54492 16.297 9.42969C16.127 9.3142 16.0157 9.14429 16.0001 8.96694C15.9846 9.14429 15.8732 9.3142 15.7032 9.42969C15.5351 9.54396 14.8022 9.973 14.1398 10.3608C13.6607 10.6413 13.2185 10.9002 13.0532 11.0029C12.6594 11.2477 11.143 12.1515 10.3388 10.4707C10.1984 10.1773 10.0034 9.77408 9.77641 9.30479C8.92963 7.55399 7.6379 4.88322 7.07823 3.56244Z" fill="#F4F4F4"/>
</svg>

<svg xmlns="http://www.w3.org/2000/svg" width="32" height="32" fill="none"><path fill="#5092FF" d="M2 8a4 4 0 0 1 4-4h20a4 4 0 0 1 4 4v18a4 4 0 0 1-4 4h-5l-5-2.5-5 2.5H6a4 4 0 0 1-4-4V8Z"/><path fill="#26EAFC" d="M5 4.121V29.88C5.492 30 6 30 6 30V4c-.324 0-.625 0-1 .121ZM9 4v26h1V4H9Zm4 0v26h2V4h-2Zm4.009 26V4h2v26h-2ZM26 30V4c.484 0 .707.043 1 .11v25.78c-.371.079-.656.11-1 .11ZM22 4v26h1V4h-1Z"/><path fill="#433B6B" d="M11.591 8.66h8.82l-2.4 3.72a1.419 1.419 0 0 1-.773.595L21.005 30H10.997l3.77-17.026a1.43 1.43 0 0 1-.776-.594l-2.4-3.72Z"/><path fill="#D3D3D3" d="m23.68 2-5.63 6.926h-4.07L8.287 2H23.68Z"/><path fill="#F4F4F4" d="M7.078 3.562C6.771 2.836 7.301 2 8.316 2c.99 0 1.8.806 2.023 1.051.192.21 3.938 3.946 5.14 5.145l.36.359a.526.526 0 0 1 .161.327.526.526 0 0 1 .162-.327l.2-.2c.977-.976 5.09-5.083 5.29-5.304C21.877 2.806 22.686 2 23.676 2c1.015 0 1.546.836 1.238 1.562-.56 1.321-1.851 3.992-2.698 5.743-.227.47-.422.872-.562 1.166-.805 1.68-2.321.777-2.715.532a78.94 78.94 0 0 0-1.067-.633 60.47 60.47 0 0 1-1.574-.94.646.646 0 0 1-.297-.463.646.646 0 0 1-.297.463c-.168.114-.9.543-1.563.93-.48.281-.921.54-1.087.643-.394.245-1.91 1.149-2.714-.532-.14-.294-.336-.697-.563-1.166-.846-1.751-2.138-4.422-2.698-5.743Z"/></svg>
